X:98
T:Llwyn Onn
M:3/4
L:1/8
Q:100
C:Trad. arr. J.T.
R:Slow air
N:Arrangement in A minor
K:G
E2 | A2 c2 ED | B2 A2 GA | Bc dc BA | G2 E2 E2 | A2 c B AG|
F2 D2 F2 | E2 A2 G2 | E4 :||: AB | c2 AB cd |
c2 B2 A2 | B2 Bc d2 | d2 c2 B2 | c2 AB cd | c2 B2 A2|
| GF E2 D2 | E4 E2 | A2 c2 ED | B2 A2 GA | Bc dc BA |
G2 E2 E2 | A2 cB AG | F2 D2 F2 | E2 A2 G2 | E4 :||
